!!!SOCIAL_FUNCTION: songs of the raven lance society
!!!SOCIAL_FUNCTION2: Raven Lance Society
!!!PDT:	1929
!!!LING_GROUP: Caddoan
!!!LANG: Non-Tone
!!!REG: Oklahoma
!!!COM: Anon.
!!!OTL: Crow Lance Society Song
!!!ODT: <1920//
!!!MPN: Tsastawinahiigat [She led a phony into the ceremony, Effie Blain]
!!!MLC: Pawnee, Oklahoma, United States of America
!! Song was recorded either 1919 or 1920.
!!!AGN: monody
!!!AMT: irregular
!!!RWG: Transcribed pitches, durations, and meters are only approximate.
!! Drum not recorded
**kern
*ICvox
*Ifemale
*clefG2
*k[b-e-a-d-]
*[A,A]
*>A
*M2/4
*MM84
8c
=1
2cc
=2
16c
8.b-
20b-
20a-
20g
20.f
40f
=3
4b-
4g
*M3/4
=4
16g
8.f
4.f
8g
*M2/4
=5
[2f
=6
4.f]
8a-
*M3/4
=7
4g
16g
8f
16f
16f
8.e-
*M2/4
=8
8.c
16c
16c
8c
16c
=9
8c
[8c
8.c]
16d-
=10
8.c
16c
4c
=11
16c
8.B-
20c
20G
20F
20.F
40F
=12
4B-
4G
*M3/4
=13
16G
8.F
4.F
8G
*M2/4
=14
4.F
==:|!
*-
!!!HAO:    The next song belonged to the singer's father and
!!!HAO: was his war song.
!!!HTX: [no free translation]
!!!CNT: Pawnee
!!!TXO: Pawnee
!!!OCY: United States
!!!OCL: Frances Densmore
!!!YOR: Frances Densmore, "Pawnee Music"
!!!YOR: Bulletin 93, page 53, No. 25
!!!PPR: Smithsonian Institution, Bureau of American Ethnology
!!!PPR: Government Printing Office
!!!PDT: 1926
!!!PPP: Washington, DC, United States of America
!!!YEC: Electronic Copyright 2000 David Huron
!!!YER: September 2000
!!!YEN: United States of America
!!!ENC: David Huron
!!!RDT: September 3, 2000
!!!EEV: Release 1.0
!!!AIN: vox
